X: 1
T: Jack Palance's
M: 4/4
L: 1/8
R: reel
K: Dmin
|:~a2 ge fedc|Addc defg|~a2 ge fedc|fage fedc|
(3aba ge fedc|Addc defa|c'abg afge|fage fedc:|
|:Addc ~d3e|fage fedc|Addc d2de|fdcA GcAF|
Addc ~d3e|fage fedc|ac'ge fedc|fdcA GcAF:|
|:Dddc dcAF|Dddc defa|Addc defg|(3aba ge fedc|
Addc dcAF|Dddc defa|c'abg afge|[1 fdec dcAF:|[2 fage fedc||
